home2.svg

<svg xmlns="http://www.w3.org/2000/svg" width="142" height="142" viewBox="0 0 142 142"><defs><clipPath id="khu3a"><path d="M33 114.553V27h76.772v87.553z"/></clipPath></defs><g><g><g><path fill="#fbfbfb" d="M71 0c39.212 0 71 31.788 71 71s-31.788 71-71 71S0 110.212 0 71 31.788 0 71 0z"/></g><g><g><g/><g clip-path="url(#khu3a)"><path d="M71.402 28.814c9.78 0 17.735 7.956 17.735 17.736 0 9.78-7.956 17.735-17.735 17.735-9.78 0-17.736-7.956-17.736-17.735 0-9.78 7.956-17.736 17.736-17.736M54.428 40.937c0 .5-.406.906-.906.906h-1.073a19.464 19.464 0 0 0-.597 4.707c0 1.608.217 3.164.585 4.66h1.022a.907.907 0 0 1 0 1.814h-.482c2.68 7.603 9.917 13.075 18.425 13.075 8.507 0 15.743-5.472 18.424-13.075h-.512a.907.907 0 0 1 0-1.813h1.052c.368-1.497.585-3.053.585-4.661 0-1.625-.221-3.196-.597-4.707h-1.102a.907.907 0 0 1 0-1.813h.557C87.116 32.45 79.893 27 71.402 27c-8.492 0-15.715 5.45-18.408 13.03h.528c.5 0 .906.405.906.907"/></g><g clip-path="url(#khu3a)"><path d="M47.93 55.715a.9.9 0 0 1 .426.857c.003-.027.012-.053.012-.081v-3.466h5.09a.907.907 0 0 0 0-1.814h-5.997c-.5 0-.906.406-.906.907v2.571l-11.116-8.247 11.24-8.161v2.656c0 .5.407.906.908.906h5.934a.907.907 0 0 0 0-1.813H48.493v-3.528a.907.907 0 0 0-1.439-.734L33.374 45.7a.905.905 0 0 0-.007 1.462l12.892 9.565.426-.705a.905.905 0 0 1 1.245-.307"/></g><g clip-path="url(#khu3a)"/><g clip-path="url(#khu3a)"><path d="M48.564 57.661"/></g><g clip-path="url(#khu3a)"><path d="M94.753 56.655"/></g><g clip-path="url(#khu3a)"><path d="M109.772 46.428c0-.288-.14-.56-.374-.729l-13.68-9.932a.905.905 0 0 0-1.44.734v3.528h-5.026a.907.907 0 1 0 0 1.814h5.934c.5 0 .906-.406.906-.907V38.28l11.24 8.16-11.114 8.248v-2.57c0-.501-.407-.907-.907-.907h-5.998a.907.907 0 0 0 0 1.813h5.091v3.466c0 .025.008.049.01.073a.902.902 0 0 1 1.678-.533l.413.703 12.9-9.571a.91.91 0 0 0 .367-.734"/></g><g clip-path="url(#khu3a)"><path d="M94.85 55.708a.904.904 0 0 0-.423.946.894.894 0 0 0 .092.267c.005.01.005.02.01.029l10.69 18.185h-6.848c-.5 0-.907.406-.907.907v34.73c0 1.541-1.62 1.906-1.974 1.968H67.171v.861c0 .5-.406.907-.906.907H51.647a.907.907 0 0 1-.907-.907v-.861H47.4c-.892 0-1.545-.21-1.94-.622-.49-.51-.465-1.226-.463-1.284V76.042c0-.5-.406-.907-.907-.907h-6.826l10.971-18.17.004-.006c.002-.004.002-.01.004-.013a.882.882 0 0 0 .115-.374.9.9 0 0 0-1.672-.551l-.426.706-11.38 18.846a.905.905 0 0 0 .777 1.376h7.526l.002 33.826c-.01.15-.069 1.493.939 2.57.75.801 1.852 1.208 3.276 1.208H95.56c.04 0 .08-.003.12-.008 1.245-.166 3.598-1.168 3.598-3.772V76.949h7.526a.906.906 0 0 0 .782-1.367l-11.081-18.85-.413-.702a.908.908 0 0 0-1.241-.322"/></g><g clip-path="url(#khu3a)"><path d="M52.554 87.709a3.143 3.143 0 0 1 3.138-3.14h6.526c1.73 0 3.14 1.409 3.14 3.14v24.985H52.554zm9.664-4.953h-6.526a4.958 4.958 0 0 0-4.952 4.953V113.6c0 .5.407.907.907.907h14.618c.5 0 .906-.406.906-.907V87.709a4.959 4.959 0 0 0-4.952-4.953"/></g><g clip-path="url(#khu3a)"><path d="M90.093 87.709v6.978H77.29V87.71c0-1.731 1.41-3.14 3.14-3.14h6.526a3.143 3.143 0 0 1 3.138 3.14m-14.617 0v7.885c0 .5.406.907.906.907H91c.5 0 .907-.406.907-.907V87.71a4.958 4.958 0 0 0-4.952-4.953h-6.526a4.959 4.959 0 0 0-4.953 4.953"/></g><g clip-path="url(#khu3a)"><path d="M72.12 46.745a7.767 7.767 0 0 1 2.033.885c.627.389.942.984.942 1.788 0 .728-.264 1.35-.79 1.863-.529.515-1.257.823-2.184.923zm-3.501-2.749c-.553-.3-.83-.803-.83-1.506 0-.728.265-1.299.791-1.713.527-.414 1.231-.66 2.11-.734v4.781c-.83-.25-1.52-.527-2.071-.828m-.678 8.98c.803.389 1.72.621 2.749.696v1.995c0 .553.237.83.714.83s.717-.277.717-.83v-1.995c1.354-.126 2.465-.552 3.331-1.28.866-.727 1.299-1.707 1.299-2.937 0-.978-.25-1.744-.753-2.296a4.918 4.918 0 0 0-1.826-1.261c-.715-.289-1.4-.52-2.051-.698v-5.157c.652.075 1.185.219 1.6.432.414.214.745.409.998.584.199.176.4.264.602.264.2 0 .376-.088.526-.264.151-.175.226-.35.226-.527 0-.251-.1-.452-.3-.602-.403-.352-.899-.653-1.488-.904-.59-.251-1.312-.4-2.164-.452v-1.016c0-.552-.24-.829-.717-.829s-.714.277-.714.829v1.016c-1.407.126-2.511.54-3.314 1.243-.804.703-1.205 1.607-1.205 2.71 0 .804.22 1.45.66 1.94.438.49 1.002.884 1.693 1.186.69.3 1.412.54 2.166.715v5.798a6.144 6.144 0 0 1-1.94-.602c-.59-.3-1.048-.653-1.374-1.054-.201-.175-.414-.264-.64-.264a.9.9 0 0 0-.603.225.753.753 0 0 0-.263.603c0 .176.063.352.189.527.45.527 1.079.986 1.882 1.374"/></g></g></g></g></g></svg>

<?xml version="1.0" encoding="UTF-8" standalone="no"?>
<!DOCTYPE svg PUBLIC "-//W3C//DTD SVG 1.1//EN" "http://www.w3.org/Graphics/SVG/1.1/DTD/svg11.dtd">
<svg width="100%" height="100%" viewBox="0 0 142 142" version="1.1" xmlns="http://www.w3.org/2000/svg" xmlns:xlink="http://www.w3.org/1999/xlink" xml:space="preserve" xmlns:serif="http://www.serif.com/" style="fill-rule:evenodd;clip-rule:evenodd;stroke-linejoin:round;stroke-miterlimit:2;">
    <g>
        <g>
            <g>
                <g>
                    <g>
                        <path d="M71.402,28.814C81.182,28.814 89.137,36.77 89.137,46.55C89.137,56.33 81.181,64.285 71.402,64.285C61.622,64.285 53.666,56.329 53.666,46.55C53.666,36.77 61.622,28.814 71.402,28.814M54.428,40.937C54.428,41.437 54.022,41.843 53.522,41.843L52.449,41.843C52.059,43.382 51.858,44.963 51.852,46.55C51.852,48.158 52.069,49.714 52.437,51.21L53.459,51.21C53.957,51.21 54.366,51.619 54.366,52.117C54.366,52.615 53.957,53.024 53.459,53.024L52.977,53.024C55.657,60.627 62.894,66.099 71.402,66.099C79.909,66.099 87.145,60.627 89.826,53.024L89.314,53.024C88.828,53.008 88.437,52.604 88.437,52.117C88.437,51.631 88.828,51.227 89.314,51.211L90.366,51.211C90.734,49.714 90.951,48.158 90.951,46.55C90.951,44.925 90.73,43.354 90.354,41.843L89.252,41.843C88.766,41.827 88.375,41.423 88.375,40.936C88.375,40.45 88.766,40.046 89.252,40.03L89.809,40.03C87.116,32.45 79.893,27 71.402,27C62.91,27 55.687,32.45 52.994,40.03L53.522,40.03C54.022,40.03 54.428,40.435 54.428,40.937" style="fill-rule:nonzero;"/>
                    </g>
                    <g>
                        <clipPath id="_clip1">
                            <rect x="33" y="27" width="76.772" height="87.553"/>
                        </clipPath>
                        <g clip-path="url(#_clip1)">
                            <path d="M47.93,55.715C48.224,55.895 48.39,56.229 48.356,56.572C48.359,56.545 48.368,56.519 48.368,56.491L48.368,53.025L53.458,53.025C53.956,53.025 54.365,52.616 54.365,52.118C54.365,51.62 53.956,51.211 53.458,51.211L47.461,51.211C46.961,51.211 46.555,51.617 46.555,52.118L46.555,54.689L35.439,46.442L46.679,38.281L46.679,40.937C46.679,41.437 47.086,41.843 47.587,41.843L53.521,41.843C54.007,41.827 54.398,41.423 54.398,40.936C54.398,40.45 54.007,40.046 53.521,40.03L48.493,40.03L48.493,36.502C48.493,36.005 48.083,35.596 47.586,35.596C47.395,35.596 47.209,35.656 47.054,35.768L33.374,45.7C33.139,45.87 32.999,46.143 32.999,46.434C32.999,46.721 33.136,46.992 33.367,47.162L46.259,56.727L46.685,56.022C46.849,55.75 47.143,55.584 47.46,55.584C47.626,55.584 47.788,55.629 47.93,55.715" style="fill-rule:nonzero;"/>
                        </g>
                    </g>
                    <g>
                        <clipPath id="_clip2">
                            <rect x="33" y="27" width="76.772" height="87.553"/>
                        </clipPath>
                        <g clip-path="url(#_clip2)">
                            <path d="M109.772,46.428C109.772,46.14 109.632,45.868 109.398,45.699L95.718,35.767C95.563,35.653 95.375,35.592 95.183,35.592C94.687,35.592 94.278,36 94.278,36.497C94.278,36.498 94.278,36.5 94.278,36.501L94.278,40.029L89.252,40.029C88.754,40.029 88.345,40.438 88.345,40.936C88.345,41.434 88.754,41.843 89.252,41.843L95.186,41.843C95.686,41.843 96.092,41.437 96.092,40.936L96.092,38.28L107.332,46.44L96.218,54.688L96.218,52.118C96.218,51.617 95.811,51.211 95.311,51.211L89.313,51.211C88.827,51.227 88.436,51.631 88.436,52.118C88.436,52.604 88.827,53.008 89.313,53.024L94.404,53.024L94.404,56.49C94.404,56.515 94.412,56.539 94.414,56.563C94.412,56.537 94.411,56.51 94.411,56.484C94.411,55.989 94.818,55.582 95.313,55.582C95.633,55.582 95.931,55.753 96.092,56.03L96.505,56.733L109.405,47.162C109.637,46.99 109.773,46.717 109.772,46.428" style="fill-rule:nonzero;"/>
                        </g>
                    </g>
                    <g>
                        <path d="M94.85,55.708C94.525,55.903 94.356,56.282 94.427,56.654C94.443,56.747 94.474,56.837 94.519,56.921C94.524,56.931 94.524,56.941 94.529,56.95L105.219,75.135L98.371,75.135C97.871,75.135 97.464,75.541 97.464,76.042L97.464,110.772C97.464,112.313 95.844,112.678 95.49,112.74L67.171,112.74L67.171,113.601C67.171,114.101 66.765,114.508 66.265,114.508L51.647,114.508C51.149,114.508 50.74,114.099 50.74,113.601L50.74,112.74L47.4,112.74C46.508,112.74 45.855,112.53 45.46,112.118C44.97,111.608 44.995,110.892 44.997,110.834L44.997,76.042C44.997,75.542 44.591,75.135 44.09,75.135L37.264,75.135L48.235,56.965L48.239,56.959C48.241,56.955 48.241,56.949 48.243,56.946C48.309,56.832 48.348,56.704 48.358,56.572C48.362,56.54 48.363,56.507 48.363,56.475C48.363,55.981 47.957,55.575 47.463,55.575C47.144,55.575 46.847,55.745 46.686,56.021L46.26,56.727L34.88,75.573C34.794,75.715 34.748,75.878 34.748,76.044C34.748,76.54 35.156,76.949 35.653,76.949C35.654,76.949 35.656,76.949 35.657,76.949L43.183,76.949L43.185,110.775C43.175,110.925 43.116,112.268 44.124,113.345C44.874,114.146 45.976,114.553 47.4,114.553L95.56,114.553C95.6,114.553 95.64,114.55 95.68,114.545C96.925,114.379 99.278,113.377 99.278,110.773L99.278,76.949L106.804,76.949C106.805,76.949 106.805,76.949 106.806,76.949C107.303,76.949 107.712,76.54 107.712,76.043C107.712,75.881 107.669,75.722 107.586,75.582L96.505,56.732L96.092,56.03C95.839,55.602 95.28,55.457 94.851,55.708" style="fill-rule:nonzero;"/>
                    </g>
                    <g>
                        <path d="M52.554,87.709C52.556,85.988 53.971,84.572 55.692,84.569L62.218,84.569C63.948,84.569 65.358,85.978 65.358,87.709L65.358,112.694L52.554,112.694L52.554,87.709ZM62.218,82.756L55.692,82.756C52.976,82.759 50.743,84.993 50.74,87.709L50.74,113.6C50.74,114.1 51.147,114.507 51.647,114.507L66.265,114.507C66.765,114.507 67.171,114.101 67.171,113.6L67.171,87.709C67.168,84.993 64.935,82.76 62.219,82.756" style="fill-rule:nonzero;"/>
                    </g>
                    <g>
                        <path d="M90.093,87.709L90.093,94.687L77.29,94.687L77.29,87.71C77.29,85.979 78.7,84.57 80.43,84.57L86.956,84.57C88.677,84.573 90.092,85.989 90.094,87.71M75.477,87.71L75.477,95.595C75.477,96.095 75.883,96.502 76.383,96.502L91,96.502C91.5,96.502 91.907,96.096 91.907,95.595L91.907,87.71C91.904,84.994 89.671,82.76 86.955,82.757L80.429,82.757C77.713,82.76 75.479,84.994 75.476,87.71" style="fill-rule:nonzero;"/>
                    </g>
                    <g>
                        <path d="M72.12,46.745C72.836,46.941 73.521,47.239 74.153,47.63C74.78,48.019 75.095,48.614 75.095,49.418C75.095,50.146 74.831,50.768 74.305,51.281C73.776,51.796 73.048,52.104 72.121,52.204L72.12,46.745ZM68.619,43.996C68.066,43.696 67.789,43.193 67.789,42.49C67.789,41.762 68.054,41.191 68.58,40.777C69.107,40.363 69.811,40.117 70.69,40.043L70.69,44.824C69.86,44.574 69.17,44.297 68.619,43.996M67.941,52.976C68.744,53.365 69.661,53.597 70.69,53.672L70.69,55.667C70.69,56.22 70.927,56.497 71.404,56.497C71.881,56.497 72.121,56.22 72.121,55.667L72.121,53.672C73.475,53.546 74.586,53.12 75.452,52.392C76.318,51.665 76.751,50.685 76.751,49.455C76.751,48.477 76.501,47.711 75.998,47.159C75.493,46.605 74.869,46.174 74.172,45.898C73.457,45.609 72.772,45.378 72.121,45.2L72.121,40.043C72.773,40.118 73.306,40.262 73.721,40.475C74.135,40.689 74.466,40.884 74.719,41.059C74.918,41.235 75.119,41.323 75.321,41.323C75.521,41.323 75.697,41.235 75.847,41.059C75.998,40.884 76.073,40.709 76.073,40.532C76.073,40.281 75.973,40.08 75.773,39.93C75.37,39.578 74.874,39.277 74.285,39.026C73.695,38.775 72.973,38.626 72.121,38.574L72.121,37.558C72.121,37.006 71.881,36.729 71.404,36.729C70.927,36.729 70.69,37.006 70.69,37.558L70.69,38.574C69.283,38.7 68.179,39.114 67.376,39.817C66.572,40.52 66.171,41.424 66.171,42.527C66.171,43.331 66.391,43.977 66.831,44.467C67.269,44.957 67.833,45.351 68.524,45.653C69.214,45.953 69.936,46.193 70.69,46.368L70.69,52.166C70.014,52.074 69.359,51.871 68.75,51.564C68.16,51.264 67.702,50.911 67.376,50.51C67.175,50.335 66.962,50.246 66.736,50.246C66.514,50.244 66.299,50.324 66.133,50.471C65.958,50.621 65.861,50.843 65.87,51.074C65.87,51.25 65.933,51.426 66.059,51.601C66.509,52.128 67.138,52.587 67.941,52.975" style="fill-rule:nonzero;"/>
                    </g>
                </g>
            </g>
        </g>
    </g>
</svg>
